src/assets/icons/plus.svg

<svg height="512pt" viewBox="0 0 512 512" width="512pt" xmlns="http://www.w3.org/2000/svg"><path d="m437.019531 74.980469c-48.351562-48.351563-112.640625-74.980469-181.019531-74.980469s-132.667969 26.628906-181.019531 74.980469c-48.351563 48.351562-74.980469 112.640625-74.980469 181.019531s26.628906 132.667969 74.980469 181.019531c48.351562 48.351563 112.640625 74.980469 181.019531 74.980469s132.667969-26.628906 181.019531-74.980469c48.351563-48.351562 74.980469-112.640625 74.980469-181.019531s-26.628906-132.667969-74.980469-181.019531zm-181.019531 397.019531c-119.101562 0-216-96.898438-216-216s96.898438-216 216-216 216 96.898438 216 216-96.898438 216-216 216zm20-236.019531h90v40h-90v90h-40v-90h-90v-40h90v-90h40zm0 0"/></svg>

<svg width="512" height="512" viewBox="0 0 512 512" fill="none" xmlns="http://www.w3.org/2000/svg">
<g clip-path="url(#clip0)">
<path d="M437.02 74.9805C388.668 26.6289 324.379 0 256 0C187.621 0 123.332 26.6289 74.9805 74.9805C26.6289 123.332 0 187.621 0 256C0 324.379 26.6289 388.668 74.9805 437.02C123.332 485.371 187.621 512 256 512C324.379 512 388.668 485.371 437.02 437.02C485.371 388.668 512 324.379 512 256C512 187.621 485.371 123.332 437.02 74.9805V74.9805ZM256 472C136.898 472 40 375.102 40 256C40 136.898 136.898 40 256 40C375.102 40 472 136.898 472 256C472 375.102 375.102 472 256 472V472ZM276 235.98H366V275.98H276V365.98H236V275.98H146V235.98H236V145.98H276V235.98Z" fill="#204051"/>
</g>
<defs>
<clipPath id="clip0">
<rect width="512" height="512" fill="white"/>
</clipPath>
</defs>
</svg>
